src/16/panel/nm-vpn-lock.svg

<svg height="16" width="16" xmlns="http://www.w3.org/2000/svg"><path d="M13 9c-1.108 0-2 .91-2 2.031V12h-1v4h6v-4h-1v-.969C15 9.911 14.108 9 13 9zm0 1c.554 0 1 .442 1 1v1h-2v-1c0-.558.446-1 1-1z" style="marker:none" color="#000" overflow="visible" fill="#bebebe"/></svg>

<svg xmlns="http://www.w3.org/2000/svg" width="16" height="16" version="1.1">
 <defs>
  <style id="current-color-scheme" type="text/css">
   .ColorScheme-Text { color:#dfdfdf; } .ColorScheme-Highlight { color:#4285f4; }
  </style>
 </defs>
 <path style="fill:currentColor" class="ColorScheme-Text" d="M 13,9 C 11.89,9 11,9.91 11,11.03 V 12 H 10 V 16 H 16 V 12 H 15 V 11.03 C 15,9.91 14.11,9 13,9 Z M 13,10 C 13.55,10 14,10.44 14,11 V 12 H 12 V 11 C 12,10.44 12.45,10 13,10 Z"/>
</svg>
